images/icon-html.svg

<?xml version="1.0" encoding="UTF-8"?>
<svg  preserveAspectRatio="none" width="300px" height="300px" viewBox="0 0 302 302" version="1.1" xmlns="http://www.w3.org/2000/svg" xmlns:xlink="http://www.w3.org/1999/xlink">
    <defs></defs>
    <g id="Page-1" stroke="none" stroke-width="1" fill="none" fill-rule="evenodd">
        <g id="icon-html">
            <path d="M295.120394,0.164285714 L4.69456351,0.164285714 C2.10163259,0.164285714 0,2.30059524 0,4.93571429 L0,66.0154762 L0,295.064286 C0,297.699405 2.10163259,299.83631 4.69456351,299.83631 L295.12098,299.83631 C297.713911,299.83631 299.815544,297.7 299.815544,295.064286 L299.815544,66.0154762 L299.815544,4.93571429 C299.814958,2.30059524 297.713911,0.164285714 295.120394,0.164285714 Z M290.426417,290.292262 L9.38854145,290.292262 L9.38854145,70.7875 L290.425831,70.7875 L290.425831,290.292262 L290.426417,290.292262 Z M290.426417,61.2434524 L9.38854145,61.2434524 L9.38854145,9.7077381 L290.425831,9.7077381 L290.425831,61.2434524 L290.426417,61.2434524 Z" id="Shape" fill="#000000" fill-rule="nonzero"></path>
            <path d="M154.91474,15.4339286 C144.042934,15.4339286 135.198393,24.425 135.198393,35.4755952 C135.198393,46.5261905 144.04352,55.5172619 154.91474,55.5172619 C165.78596,55.5172619 174.631087,46.5267857 174.631087,35.4755952 C174.631087,24.4244048 165.786546,15.4339286 154.91474,15.4339286 Z M154.91474,45.9738095 C149.220013,45.9738095 144.586935,41.2642857 144.586935,35.4755952 C144.586935,29.6869048 149.220013,24.977381 154.91474,24.977381 C160.609468,24.977381 165.242546,29.6869048 165.242546,35.4755952 C165.242546,41.2642857 160.609468,45.9738095 154.91474,45.9738095 Z" id="Shape" fill="#000000" fill-rule="nonzero"></path>
            <path d="M99.834282,15.4339286 C88.9624763,15.4339286 80.117935,24.425 80.117935,35.4755952 C80.117935,46.5261905 88.9630619,55.5172619 99.834282,55.5172619 C110.705502,55.5172619 119.550629,46.5267857 119.550629,35.4755952 C119.550629,24.4244048 110.705502,15.4339286 99.834282,15.4339286 Z M99.834282,45.9738095 C94.1395545,45.9738095 89.5064765,41.2642857 89.5064765,35.4755952 C89.5064765,29.6869048 94.1395545,24.977381 99.834282,24.977381 C105.529009,24.977381 110.162087,29.6869048 110.162087,35.4755952 C110.162087,41.2642857 105.528424,45.9738095 99.834282,45.9738095 Z" id="Shape" fill="#000000" fill-rule="nonzero"></path>
            <path d="M44.7532382,15.4339286 C33.8814326,15.4339286 25.0368913,24.425 25.0368913,35.4755952 C25.0368913,46.5261905 33.8820181,55.5172619 44.7532382,55.5172619 C55.6244583,55.5172619 64.4695852,46.5267857 64.4695852,35.4755952 C64.4695852,24.4244048 55.6250439,15.4339286 44.7532382,15.4339286 Z M44.7532382,45.9738095 C39.0585108,45.9738095 34.4254327,41.2642857 34.4254327,35.4755952 C34.4254327,29.6869048 39.0585108,24.977381 44.7532382,24.977381 C50.4479657,24.977381 55.0810437,29.6869048 55.0810437,35.4755952 C55.0810437,41.2642857 50.4479657,45.9738095 44.7532382,45.9738095 Z" id="Shape" fill="#000000" fill-rule="nonzero"></path>
            <path d="M98.8903333,135.751786 C98.9922235,131.929167 97.6237322,128.295238 95.0360715,125.519048 C92.4484107,122.742857 88.9525215,121.157738 85.1925374,121.054167 C81.4430937,120.95 77.8576113,122.342262 75.1264844,124.972024 L27.5566252,170.781548 C24.707212,173.525595 23.1050758,177.3875 23.1607055,181.377381 C23.2163352,185.367262 24.9262174,189.182143 27.8517556,191.842262 L75.4222004,235.107738 C78.0086899,237.459524 81.3417891,238.754167 84.8078139,238.754167 L84.8095707,238.754167 C88.8131544,238.754167 92.6393086,237.016071 95.3083644,233.983929 C100.486028,228.10119 99.9906308,219.033333 94.2033823,213.769643 L58.0329328,180.872619 L94.4990982,145.756548 C97.2284684,143.127381 98.7884431,139.57381 98.8903333,135.751786 Z M88.0401939,138.828571 L47.8731876,177.508929 C46.9204553,178.42619 46.3893378,179.707143 46.4080763,181.041667 C46.4268147,182.375 46.9936524,183.639881 47.9715644,184.529762 L87.9418172,220.882738 C89.8707048,222.636905 90.0364228,225.659524 88.3107301,227.620833 C87.4083573,228.646429 86.1645937,229.21131 84.8078139,229.21131 C83.6536435,229.21131 82.5433912,228.779762 81.6814232,227.995238 L34.111564,184.730357 C33.1365798,183.843452 32.5662287,182.572024 32.5474902,181.242262 C32.5293374,179.9125 33.0633828,178.625 34.0126016,177.710714 L81.5824608,131.90119 C82.4614105,131.054762 83.6021128,130.592857 84.8078139,130.592857 C84.8511466,130.592857 84.8950648,130.593452 84.9378118,130.594643 C86.1915302,130.629167 87.3562411,131.157738 88.2187947,132.082738 C89.0813482,133.007738 89.537512,134.219048 89.5035486,135.493452 C89.4707563,136.767857 88.9507648,137.952381 88.0401939,138.828571 Z" id="Shape" fill="#000000" fill-rule="nonzero"></path>
            <path d="M272.258918,170.782143 L224.689059,124.972619 C219.052304,119.544643 210.121097,119.78869 204.778886,125.519643 C199.439018,131.249405 199.680275,140.328571 205.317031,145.757143 L241.783196,180.873214 L205.612747,213.770238 C199.826084,219.033929 199.330101,228.10119 204.507765,233.985119 C207.176821,237.016071 211.002975,238.754762 215.005387,238.754762 L215.007144,238.754762 C218.47434,238.754762 221.808025,237.459524 224.393343,235.107738 L271.963202,191.842857 C274.889326,189.181548 276.599208,185.366667 276.653667,181.376786 C276.709882,177.3875 275.107746,173.525595 272.258918,170.782143 Z M265.702808,184.730952 L218.132949,227.995833 C217.270981,228.779762 216.161315,229.211905 215.006558,229.211905 L215.005973,229.211905 C213.65095,229.211905 212.407186,228.647024 211.504813,227.622024 C209.778535,225.66131 209.943668,222.638095 211.872555,220.883333 L251.842222,184.530357 C252.82072,183.641071 253.387558,182.37619 253.405711,181.042262 C253.424449,179.708333 252.893331,178.427381 251.940599,177.509524 L211.773593,138.829167 C209.894479,137.019643 209.81367,133.992857 211.593821,132.083333 C212.515518,131.094643 213.75811,130.595833 215.003045,130.595833 C216.162486,130.595833 217.324854,131.028571 218.230155,131.90119 L265.800014,177.710714 C266.750404,178.625 267.283278,179.9125 267.265125,181.242262 L267.265125,181.243452 L267.265711,181.243452 C267.248144,182.572619 266.678964,183.844048 265.702808,184.730952 Z" id="Shape" fill="#000000" fill-rule="nonzero"></path>
            <path d="M186.03928,136.733929 C185.061368,133.041071 182.727262,129.956548 179.467946,128.049405 C179.467946,128.04881 179.46736,128.04881 179.46736,128.04881 C172.736163,124.111905 164.110041,126.473214 160.23587,133.3125 L112.666011,217.297024 C108.791254,224.1375 111.114234,232.907143 117.84426,236.846429 C119.980442,238.095833 122.407069,238.757143 124.861218,238.757143 C129.888389,238.757143 134.568313,236.007738 137.074579,231.582738 L184.644438,147.59881 C186.52121,144.284524 187.017193,140.425595 186.03928,136.733929 Z M176.508444,142.835714 L128.93917,226.820238 C128.103553,228.295833 126.540651,229.2125 124.861804,229.2125 C124.036727,229.2125 123.252055,228.998214 122.528283,228.575 C120.284941,227.2625 119.51081,224.33869 120.802005,222.058333 L168.37245,138.07381 C169.239688,136.542262 170.8225,135.684524 172.448645,135.684524 C173.242686,135.684524 174.047268,135.889286 174.783337,136.320238 C175.870166,136.955952 176.647811,137.983929 176.973391,139.214286 C177.299557,140.444643 177.134425,141.730952 176.508444,142.835714 Z" id="Shape" fill="#000000" fill-rule="nonzero"></path>
            <path d="M295.120394,0.164285714 L4.69456351,0.164285714 C2.10163259,0.164285714 0,2.30059524 0,4.93571429 L0,66.0154762 L0,295.064286 C0,297.699405 2.10163259,299.83631 4.69456351,299.83631 L295.12098,299.83631 C297.713911,299.83631 299.815544,297.7 299.815544,295.064286 L299.815544,66.0154762 L299.815544,4.93571429 C299.814958,2.30059524 297.713911,0.164285714 295.120394,0.164285714 Z" id="Path" fill="#000000"></path>
            <polygon id="Path" fill="#FCFCFC" points="290.426417 290.292262 9.38854145 290.292262 9.38854145 70.7875 290.425831 70.7875 290.425831 290.292262"></polygon>
            <polygon id="Path" stroke="#402125" fill="#402125" points="290.426417 61.2434524 9.38854145 61.2434524 9.38854145 9.7077381 290.425831 9.7077381 290.425831 61.2434524"></polygon>
            <path d="M154.91474,15.4339286 C144.042934,15.4339286 135.198393,24.425 135.198393,35.4755952 C135.198393,46.5261905 144.04352,55.5172619 154.91474,55.5172619 C165.78596,55.5172619 174.631087,46.5267857 174.631087,35.4755952 C174.631087,24.4244048 165.786546,15.4339286 154.91474,15.4339286 Z" id="Path" stroke="#000000" fill="#000000"></path>
            <path d="M154.91474,45.9738095 C149.220013,45.9738095 144.586935,41.2642857 144.586935,35.4755952 C144.586935,29.6869048 149.220013,24.977381 154.91474,24.977381 C160.609468,24.977381 165.242546,29.6869048 165.242546,35.4755952 C165.242546,41.2642857 160.609468,45.9738095 154.91474,45.9738095 Z" id="Path" stroke="#75BD59" fill="#75BD59"></path>
            <path d="M99.834282,15.4339286 C88.9624763,15.4339286 80.117935,24.425 80.117935,35.4755952 C80.117935,46.5261905 88.9630619,55.5172619 99.834282,55.5172619 C110.705502,55.5172619 119.550629,46.5267857 119.550629,35.4755952 C119.550629,24.4244048 110.705502,15.4339286 99.834282,15.4339286 Z" id="Path" stroke="#000000" fill="#000000"></path>
            <path d="M99.834282,45.9738095 C94.1395545,45.9738095 89.5064765,41.2642857 89.5064765,35.4755952 C89.5064765,29.6869048 94.1395545,24.977381 99.834282,24.977381 C105.529009,24.977381 110.162087,29.6869048 110.162087,35.4755952 C110.162087,41.2642857 105.528424,45.9738095 99.834282,45.9738095 Z" id="Path" stroke="#F7B239" fill="#F7B239"></path>
            <path d="M44.7532382,15.4339286 C33.8814326,15.4339286 25.0368913,24.425 25.0368913,35.4755952 C25.0368913,46.5261905 33.8820181,55.5172619 44.7532382,55.5172619 C55.6244583,55.5172619 64.4695852,46.5267857 64.4695852,35.4755952 C64.4695852,24.4244048 55.6250439,15.4339286 44.7532382,15.4339286 Z" id="Path" stroke="#000000" fill="#000000"></path>
            <path d="M44.7532382,45.9738095 C39.0585108,45.9738095 34.4254327,41.2642857 34.4254327,35.4755952 C34.4254327,29.6869048 39.0585108,24.977381 44.7532382,24.977381 C50.4479657,24.977381 55.0810437,29.6869048 55.0810437,35.4755952 C55.0810437,41.2642857 50.4479657,45.9738095 44.7532382,45.9738095 Z" id="Path" stroke="#CF4D6F" fill="#CF4D6F"></path>
            <path d="M98.8903333,135.751786 C98.9922235,131.929167 97.6237322,128.295238 95.0360715,125.519048 C92.4484107,122.742857 88.9525215,121.157738 85.1925374,121.054167 C81.4430937,120.95 77.8576113,122.342262 75.1264844,124.972024 L27.5566252,170.781548 C24.707212,173.525595 23.1050758,177.3875 23.1607055,181.377381 C23.2163352,185.367262 24.9262174,189.182143 27.8517556,191.842262 L75.4222004,235.107738 C78.0086899,237.459524 81.3417891,238.754167 84.8078139,238.754167 L84.8095707,238.754167 C88.8131544,238.754167 92.6393086,237.016071 95.3083644,233.983929 C100.486028,228.10119 99.9906308,219.033333 94.2033823,213.769643 L58.0329328,180.872619 L94.4990982,145.756548 C97.2284684,143.127381 98.7884431,139.57381 98.8903333,135.751786 Z" id="Path" fill="#000000"></path>
            <path d="M88.0401939,138.828571 L47.8731876,177.508929 C46.9204553,178.42619 46.3893378,179.707143 46.4080763,181.041667 C46.4268147,182.375 46.9936524,183.639881 47.9715644,184.529762 L87.9418172,220.882738 C89.8707048,222.636905 90.0364228,225.659524 88.3107301,227.620833 C87.4083573,228.646429 86.1645937,229.21131 84.8078139,229.21131 C83.6536435,229.21131 82.5433912,228.779762 81.6814232,227.995238 L34.111564,184.730357 C33.1365798,183.843452 32.5662287,182.572024 32.5474902,181.242262 C32.5293374,179.9125 33.0633828,178.625 34.0126016,177.710714 L81.5824608,131.90119 C82.4614105,131.054762 83.6021128,130.592857 84.8078139,130.592857 C84.8511466,130.592857 84.8950648,130.593452 84.9378118,130.594643 C86.1915302,130.629167 87.3562411,131.157738 88.2187947,132.082738 C89.0813482,133.007738 89.537512,134.219048 89.5035486,135.493452 C89.4707563,136.767857 88.9507648,137.952381 88.0401939,138.828571 Z" id="Path" stroke="#D9554C" fill="#D9554C"></path>
            <path d="M272.258278,170.782143 L224.688418,124.972619 C219.051663,119.544643 210.120456,119.78869 204.778246,125.519643 C199.438377,131.249405 199.679635,140.328571 205.31639,145.757143 L241.782556,180.873214 L205.612106,213.770238 C199.825443,219.033929 199.32946,228.10119 204.507124,233.985119 C207.17618,237.016071 211.002334,238.754762 215.004747,238.754762 L215.006503,238.754762 C218.473699,238.754762 221.807384,237.459524 224.392702,235.107738 L271.962562,191.842857 C274.888685,189.181548 276.598568,185.366667 276.653026,181.376786 C276.709241,177.3875 275.107105,173.525595 272.258278,170.782143 Z" id="Path" fill="#000000"></path>
            <path d="M265.702808,184.730952 L218.132949,227.995833 C217.270981,228.779762 216.161315,229.211905 215.006558,229.211905 L215.005973,229.211905 C213.65095,229.211905 212.407186,228.647024 211.504813,227.622024 C209.778535,225.66131 209.943668,222.638095 211.872555,220.883333 L251.842222,184.530357 C252.82072,183.641071 253.387558,182.37619 253.405711,181.042262 C253.424449,179.708333 252.893331,178.427381 251.940599,177.509524 L211.773593,138.829167 C209.894479,137.019643 209.81367,133.992857 211.593821,132.083333 C212.515518,131.094643 213.75811,130.595833 215.003045,130.595833 C216.162486,130.595833 217.324854,131.028571 218.230155,131.90119 L265.800014,177.710714 C266.750404,178.625 267.283278,179.9125 267.265125,181.242262 L267.265125,181.243452 L267.265711,181.243452 C267.248144,182.572619 266.678964,183.844048 265.702808,184.730952 Z" id="Path" stroke="#D9554C" fill="#D9554C"></path>
            <path d="M186.03928,136.733929 C185.061368,133.041071 182.727262,129.956548 179.467946,128.049405 C179.467946,128.04881 179.46736,128.04881 179.46736,128.04881 C172.736163,124.111905 164.110041,126.473214 160.23587,133.3125 L112.666011,217.297024 C108.791254,224.1375 111.114234,232.907143 117.84426,236.846429 C119.980442,238.095833 122.407069,238.757143 124.861218,238.757143 C129.888389,238.757143 134.568313,236.007738 137.074579,231.582738 L184.644438,147.59881 C186.52121,144.284524 187.017193,140.425595 186.03928,136.733929 Z" id="Path" fill="#000000"></path>
            <path d="M176.508444,142.835714 L128.93917,226.820238 C128.103553,228.295833 126.540651,229.2125 124.861804,229.2125 C124.036727,229.2125 123.252055,228.998214 122.528283,228.575 C120.284941,227.2625 119.51081,224.33869 120.802005,222.058333 L168.37245,138.07381 C169.239688,136.542262 170.8225,135.684524 172.448645,135.684524 C173.242686,135.684524 174.047268,135.889286 174.783337,136.320238 C175.870166,136.955952 176.647811,137.983929 176.973391,139.214286 C177.299557,140.444643 177.134425,141.730952 176.508444,142.835714 Z" id="Path" stroke="#D9554C" fill="#D9554C"></path>
        </g>
    </g>
</svg>

<svg preserveAspectRatio="none" width="300" height="300" viewBox="0 0 302 302" xmlns="http://www.w3.org/2000/svg"><g fill="none" fill-rule="evenodd"><path d="M295.12.164H4.695C2.102.164 0 2.301 0 4.936v290.128c0 2.635 2.102 4.772 4.695 4.772H295.12c2.593 0 4.695-2.136 4.695-4.772V4.935c-.001-2.634-2.102-4.77-4.696-4.77zm-4.694 290.128H9.39V70.788h281.037v219.504zm0-229.049H9.39V9.708h281.037v51.535z" fill="#000" fill-rule="nonzero"/><path d="M154.915 15.434c-10.872 0-19.717 8.991-19.717 20.042 0 11.05 8.846 20.041 19.717 20.041 10.871 0 19.716-8.99 19.716-20.041 0-11.052-8.844-20.042-19.716-20.042zm0 30.54c-5.695 0-10.328-4.71-10.328-10.498 0-5.79 4.633-10.499 10.328-10.499 5.694 0 10.328 4.71 10.328 10.499 0 5.788-4.634 10.498-10.328 10.498zM99.834 15.434c-10.872 0-19.716 8.991-19.716 20.042 0 11.05 8.845 20.041 19.716 20.041 10.872 0 19.717-8.99 19.717-20.041 0-11.052-8.845-20.042-19.717-20.042zm0 30.54c-5.694 0-10.328-4.71-10.328-10.498 0-5.79 4.634-10.499 10.328-10.499 5.695 0 10.328 4.71 10.328 10.499 0 5.788-4.634 10.498-10.328 10.498zM44.753 15.434c-10.872 0-19.716 8.991-19.716 20.042 0 11.05 8.845 20.041 19.716 20.041s19.717-8.99 19.717-20.041c0-11.052-8.845-20.042-19.717-20.042zm0 30.54c-5.694 0-10.328-4.71-10.328-10.498 0-5.79 4.634-10.499 10.328-10.499 5.695 0 10.328 4.71 10.328 10.499 0 5.788-4.633 10.498-10.328 10.498zM98.89 135.752c.102-3.823-1.266-7.457-3.854-10.233-2.588-2.776-6.083-4.361-9.843-4.465-3.75-.104-7.335 1.288-10.067 3.918l-47.57 45.81c-2.849 2.744-4.45 6.605-4.395 10.595.055 3.99 1.765 7.805 4.69 10.465l47.571 43.266a13.931 13.931 0 0 0 9.386 3.646h.002c4.003 0 7.83-1.738 10.498-4.77 5.178-5.883 4.683-14.95-1.105-20.214l-36.17-32.897 36.466-35.116c2.73-2.63 4.29-6.183 4.391-10.005zm-10.85 3.077l-40.167 38.68a4.81 4.81 0 0 0-1.465 3.533 4.807 4.807 0 0 0 1.564 3.488l39.97 36.353c1.929 1.754 2.094 4.777.369 6.738a4.608 4.608 0 0 1-3.503 1.59 4.638 4.638 0 0 1-3.127-1.216l-47.57-43.265a4.826 4.826 0 0 1-.099-7.02l47.57-45.809a4.621 4.621 0 0 1 3.356-1.306 4.63 4.63 0 0 1 3.28 1.488 4.782 4.782 0 0 1 1.286 3.41 4.768 4.768 0 0 1-1.464 3.336zM272.259 170.782l-47.57-45.81a13.94 13.94 0 0 0-19.91.548c-5.34 5.73-5.099 14.809.538 20.237l36.466 35.116-36.17 32.897c-5.787 5.264-6.283 14.331-1.105 20.215 2.669 3.031 6.495 4.77 10.497 4.77h.002c3.467 0 6.801-1.295 9.386-3.647l47.57-43.265c2.926-2.661 4.636-6.476 4.69-10.466.057-3.99-1.545-7.851-4.394-10.595zm-6.556 13.949l-47.57 43.265a4.64 4.64 0 0 1-3.126 1.216h-.001a4.609 4.609 0 0 1-3.501-1.59c-1.726-1.96-1.561-4.984.368-6.739l39.97-36.353a4.8 4.8 0 0 0 1.563-3.488 4.812 4.812 0 0 0-1.465-3.532l-40.167-38.68c-1.88-1.81-1.96-4.837-.18-6.747a4.646 4.646 0 0 1 6.636-.182l47.57 45.81a4.821 4.821 0 0 1 1.465 3.531v.001a4.81 4.81 0 0 1-1.562 3.488zM186.04 136.734c-.979-3.693-3.313-6.777-6.572-8.685-6.732-3.937-15.358-1.576-19.232 5.263l-47.57 83.985c-3.875 6.84-1.552 15.61 5.178 19.55a13.918 13.918 0 0 0 7.017 1.91c5.027 0 9.707-2.75 12.214-7.174l47.57-83.984a14.43 14.43 0 0 0 1.394-10.865zm-9.532 6.102L128.94 226.82a4.702 4.702 0 0 1-4.077 2.393c-.825 0-1.61-.215-2.334-.638-2.243-1.313-3.017-4.236-1.726-6.517l47.57-83.984a4.683 4.683 0 0 1 4.077-2.39c.794 0 1.598.205 2.334.636a4.727 4.727 0 0 1 2.19 2.894 4.807 4.807 0 0 1-.465 3.622z" fill="#000" fill-rule="nonzero"/><path d="M295.12.164H4.695C2.102.164 0 2.301 0 4.936v290.128c0 2.635 2.102 4.772 4.695 4.772H295.12c2.593 0 4.695-2.136 4.695-4.772V4.935c-.001-2.634-2.102-4.77-4.696-4.77z" fill="#000"/><path fill="#FCFCFC" d="M290.426 290.292H9.39V70.788h281.037v219.504z"/><path stroke="#402125" fill="#402125" d="M290.426 61.243H9.39V9.708h281.037v51.535z"/><path d="M154.915 15.434c-10.872 0-19.717 8.991-19.717 20.042 0 11.05 8.846 20.041 19.717 20.041 10.871 0 19.716-8.99 19.716-20.041 0-11.052-8.844-20.042-19.716-20.042z" stroke="#000" fill="#000"/><path d="M154.915 45.974c-5.695 0-10.328-4.71-10.328-10.498 0-5.79 4.633-10.499 10.328-10.499 5.694 0 10.328 4.71 10.328 10.499 0 5.788-4.634 10.498-10.328 10.498z" stroke="#75BD59" fill="#75BD59"/><path d="M99.834 15.434c-10.872 0-19.716 8.991-19.716 20.042 0 11.05 8.845 20.041 19.716 20.041 10.872 0 19.717-8.99 19.717-20.041 0-11.052-8.845-20.042-19.717-20.042z" stroke="#000" fill="#000"/><path d="M99.834 45.974c-5.694 0-10.328-4.71-10.328-10.498 0-5.79 4.634-10.499 10.328-10.499 5.695 0 10.328 4.71 10.328 10.499 0 5.788-4.634 10.498-10.328 10.498z" stroke="#F7B239" fill="#F7B239"/><path d="M44.753 15.434c-10.872 0-19.716 8.991-19.716 20.042 0 11.05 8.845 20.041 19.716 20.041s19.717-8.99 19.717-20.041c0-11.052-8.845-20.042-19.717-20.042z" stroke="#000" fill="#000"/><path d="M44.753 45.974c-5.694 0-10.328-4.71-10.328-10.498 0-5.79 4.634-10.499 10.328-10.499 5.695 0 10.328 4.71 10.328 10.499 0 5.788-4.633 10.498-10.328 10.498z" stroke="#CF4D6F" fill="#CF4D6F"/><path d="M98.89 135.752c.102-3.823-1.266-7.457-3.854-10.233-2.588-2.776-6.083-4.361-9.843-4.465-3.75-.104-7.335 1.288-10.067 3.918l-47.57 45.81c-2.849 2.744-4.45 6.605-4.395 10.595.055 3.99 1.765 7.805 4.69 10.465l47.571 43.266a13.931 13.931 0 0 0 9.386 3.646h.002c4.003 0 7.83-1.738 10.498-4.77 5.178-5.883 4.683-14.95-1.105-20.214l-36.17-32.897 36.466-35.116c2.73-2.63 4.29-6.183 4.391-10.005z" fill="#000"/><path d="M88.04 138.829l-40.167 38.68a4.81 4.81 0 0 0-1.465 3.533 4.807 4.807 0 0 0 1.564 3.488l39.97 36.353c1.929 1.754 2.094 4.777.369 6.738a4.608 4.608 0 0 1-3.503 1.59 4.638 4.638 0 0 1-3.127-1.216l-47.57-43.265a4.826 4.826 0 0 1-.099-7.02l47.57-45.809a4.621 4.621 0 0 1 3.356-1.306 4.63 4.63 0 0 1 3.28 1.488 4.782 4.782 0 0 1 1.286 3.41 4.768 4.768 0 0 1-1.464 3.336z" stroke="#D9554C" fill="#D9554C"/><path d="M272.258 170.782l-47.57-45.81a13.94 13.94 0 0 0-19.91.548c-5.34 5.73-5.098 14.809.538 20.237l36.467 35.116-36.17 32.897c-5.788 5.264-6.284 14.331-1.106 20.215 2.67 3.031 6.495 4.77 10.498 4.77h.002c3.467 0 6.8-1.295 9.386-3.647l47.57-43.265c2.926-2.661 4.636-6.476 4.69-10.466.056-3.99-1.546-7.851-4.395-10.595z" fill="#000"/><path d="M265.703 184.731l-47.57 43.265a4.64 4.64 0 0 1-3.126 1.216h-.001a4.609 4.609 0 0 1-3.501-1.59c-1.726-1.96-1.561-4.984.368-6.739l39.97-36.353a4.8 4.8 0 0 0 1.563-3.488 4.812 4.812 0 0 0-1.465-3.532l-40.167-38.68c-1.88-1.81-1.96-4.837-.18-6.747a4.646 4.646 0 0 1 6.636-.182l47.57 45.81a4.821 4.821 0 0 1 1.465 3.531v.001a4.81 4.81 0 0 1-1.562 3.488z" stroke="#D9554C" fill="#D9554C"/><path d="M186.04 136.734c-.979-3.693-3.313-6.777-6.572-8.685-6.732-3.937-15.358-1.576-19.232 5.263l-47.57 83.985c-3.875 6.84-1.552 15.61 5.178 19.55a13.918 13.918 0 0 0 7.017 1.91c5.027 0 9.707-2.75 12.214-7.174l47.57-83.984a14.43 14.43 0 0 0 1.394-10.865z" fill="#000"/><path d="M176.508 142.836L128.94 226.82a4.702 4.702 0 0 1-4.077 2.393c-.825 0-1.61-.215-2.334-.638-2.243-1.313-3.017-4.236-1.726-6.517l47.57-83.984a4.683 4.683 0 0 1 4.077-2.39c.794 0 1.598.205 2.334.636a4.727 4.727 0 0 1 2.19 2.894 4.807 4.807 0 0 1-.465 3.622z" stroke="#D9554C" fill="#D9554C"/></g></svg>
